Numix-Light-GalliumOS/16/status/yd-busy4.svg

<?xml version="1.0" encoding="UTF-8" standalone="no"?>
<!-- Created with Inkscape (http://www.inkscape.org/) -->

<svg
   xmlns:dc="http://purl.org/dc/elements/1.1/"
   xmlns:cc="http://creativecommons.org/ns#"
   xmlns:rdf="http://www.w3.org/1999/02/22-rdf-syntax-ns#"
   xmlns:svg="http://www.w3.org/2000/svg"
   xmlns="http://www.w3.org/2000/svg"
   xmlns:sodipodi="http://sodipodi.sourceforge.net/DTD/sodipodi-0.dtd"
   xmlns:inkscape="http://www.inkscape.org/namespaces/inkscape"
   id="svg2"
   version="1.1"
   inkscape:version="0.91 r"
   width="16"
   height="16"
   viewBox="0 0 16 16"
   sodipodi:docname="yd-busy4.svg">
  <metadata
     id="metadata8">
    <rdf:RDF>
      <cc:Work
         rdf:about="">
        <dc:format>image/svg+xml</dc:format>
        <dc:type
           rdf:resource="http://purl.org/dc/dcmitype/StillImage" />
        <dc:title />
      </cc:Work>
    </rdf:RDF>
  </metadata>
  <defs
     id="defs6">
    <clipPath
       id="clipPath-408241621">
      <g
         id="g3616"
         transform="translate(0,-1004.3622)">
        <path
           id="path3618"
           transform="matrix(15.333333,0,0,11.5,414.99999,878.8622)"
           d="m -24,13 c 0,1.105 -0.672,2 -1.5,2 -0.828,0 -1.5,-0.895 -1.5,-2 0,-1.105 0.672,-2 1.5,-2 0.828,0 1.5,0.895 1.5,2 z"
           inkscape:connector-curvature="0"
           style="fill:#1890d0" />
      </g>
    </clipPath>
    <clipPath
       id="clipPath-408241621-2">
      <g
         id="g3616-2"
         transform="translate(0,-1004.3622)">
        <path
           id="path3618-9"
           transform="matrix(15.333333,0,0,11.5,414.99999,878.8622)"
           d="m -24,13 c 0,1.105 -0.672,2 -1.5,2 -0.828,0 -1.5,-0.895 -1.5,-2 0,-1.105 0.672,-2 1.5,-2 0.828,0 1.5,0.895 1.5,2 z"
           inkscape:connector-curvature="0"
           style="fill:#1890d0" />
      </g>
    </clipPath>
    <clipPath
       id="clipPath-408241621-2-6">
      <g
         id="g3616-2-4"
         transform="translate(0,-1004.3622)">
        <path
           id="path3618-9-4"
           transform="matrix(15.333333,0,0,11.5,414.99999,878.8622)"
           d="m -24,13 c 0,1.105 -0.672,2 -1.5,2 -0.828,0 -1.5,-0.895 -1.5,-2 0,-1.105 0.672,-2 1.5,-2 0.828,0 1.5,0.895 1.5,2 z"
           inkscape:connector-curvature="0"
           style="fill:#1890d0" />
      </g>
    </clipPath>
  </defs>
  <sodipodi:namedview
     pagecolor="#ffffff"
     bordercolor="#666666"
     borderopacity="1"
     objecttolerance="10"
     gridtolerance="10"
     guidetolerance="10"
     inkscape:pageopacity="0"
     inkscape:pageshadow="2"
     inkscape:window-width="1366"
     inkscape:window-height="747"
     id="namedview4"
     showgrid="true"
     showguides="false"
     inkscape:zoom="15.999999"
     inkscape:cx="3.3143225"
     inkscape:cy="12.676121"
     inkscape:window-x="0"
     inkscape:window-y="21"
     inkscape:window-maximized="1"
     inkscape:current-layer="svg2">
    <inkscape:grid
       type="xygrid"
       id="grid4142" />
  </sodipodi:namedview>
  <path
     style="opacity:1;fill:#353535;fill-opacity:0.94117647;fill-rule:nonzero;stroke:none;stroke-width:1;stroke-linecap:square;stroke-linejoin:round;stroke-miterlimit:4;stroke-dasharray:none;stroke-dashoffset:0;stroke-opacity:1"
     d="M 7.8815793,4.1689208 C 7.3847679,4.1736563 6.8910199,4.2713625 6.4252492,4.4579993 l 0.1750097,0.2703275 c 1.1485763,-0.4548395 2.4696502,-0.3211464 3.5095691,0.434399 0.111665,0.081129 0.213538,0.1712076 0.31408,0.2625145 0.120719,-0.016782 0.236222,-0.027694 0.354707,-0.042189 C 10.62233,5.224232 10.454725,5.0729237 10.270775,4.9392759 10.209822,4.8949917 10.145692,4.8609092 10.083264,4.8205194 9.9577971,4.754198 9.8200061,4.671838 9.6988681,4.5986321 9.1207721,4.3086309 8.4998487,4.1630276 7.8815793,4.1689208 Z m 0.1562591,1.473519 C 7.5630753,5.6173584 7.0892143,5.7298652 6.6768256,5.9815211 L 6.1767979,6.2862254 6.1299204,6.2127839 6.2064871,6.3784181 C 6.5210354,6.281333 6.8398635,6.1858208 7.1674778,6.0971525 7.6616568,5.9634033 8.1452723,5.8525765 8.6222459,5.7502583 8.4295625,5.6923152 8.2344629,5.6528274 8.0378384,5.6424398 Z M 4.6329625,5.8393257 4.2376282,6.1471553 C 4.1853904,6.2410133 4.1223011,6.3555914 4.0610559,6.4518596 l 0.2312628,0.060941 -0.1140689,0.5531557 c -0.00201,0.00982 -0.0012,0.019859 -0.00313,0.029689 0.1183469,-0.047675 0.2442001,-0.093987 0.3656451,-0.1406328 L 4.6017108,6.631557 5.0548609,6.7503136 4.6329625,5.8393257 Z m 8.0254445,0.029689 c -0.02924,5.818e-4 -0.06271,0.00391 -0.09219,0.00469 0.421791,0.8592778 0.611339,1.8233567 0.523466,2.7845291 l 1.26257,0.3672075 C 15.495088,8.2689319 16.135521,7.5122581 15.975777,6.9096975 15.791904,6.21218 14.578022,5.8308324 12.658407,5.8690148 Z m -1.409453,0.09688 c -0.09988,0.010547 -0.204782,0.028363 -0.306268,0.040627 0.576295,0.8002613 0.821561,1.8022861 0.63441,2.7814034 l -0.120319,0.6297224 -0.428148,-0.1125054 0.421898,0.8766109 0.709415,-0.5437805 -0.39221,-0.1156312 0.115632,-0.5437805 c 0.217482,-1.0269936 -0.0315,-2.1221671 -0.63441,-3.0126656 z M 9.5082321,6.2268471 C 8.808213,6.3565411 8.0948583,6.5098242 7.3737392,6.7049986 7.0660062,6.788284 6.7790559,6.8844515 6.4830648,6.975326 L 7.2174802,8.5566638 5.6345805,8.1425777 c 0.065604,0.675823 0.4252449,1.3094869 1.0359947,1.7532226 0.824538,0.5990617 1.9277086,0.6411487 2.7376519,0.1343827 L 9.8973161,9.7239156 8.819132,7.4862918 10.42547,7.9066279 C 10.365167,7.2676461 10.039877,6.6602087 9.5082321,6.2268471 Z M 4.4360766,7.6863029 C 4.3245525,7.7312734 4.220994,7.778056 4.1126212,7.8238105 4.11299,9.0723844 4.715428,10.297639 5.8033397,11.088053 c 0.4555295,0.330962 0.961273,0.548676 1.4813322,0.6641 C 7.5563501,11.693005 7.8333671,11.623255 8.11128,11.553704 7.3597089,11.556651 6.60745,11.332317 5.9658487,10.866166 4.9298867,10.113496 4.3575093,8.9157589 4.4360766,7.6863029 Z M 2.9859964,8.3347764 C 1.000802,9.3280913 -0.18987836,10.415428 0.0248951,11.225561 c 0.249513,0.946406 2.3522892,1.245126 5.1627856,0.889112 -0.028858,-0.02011 -0.060526,-0.03395 -0.089067,-0.05469 C 3.8526204,11.154715 3.12262,9.7858814 2.9859964,8.3347756 Z"
     id="path4138"
     inkscape:connector-curvature="0" />
  <g
     id="g4263"
     transform="matrix(0.42307692,0,0,0.42307692,6.3606939,1.5192308)">
    <g
       style="fill:#353535;fill-opacity:1"
       id="g3628"
       transform="matrix(0.34782609,0,0,0.34782609,2.6435901,2.6456559)" />
    <g
       transform="matrix(0.49988464,0,0,0.49988464,-37.411065,7.9950011)"
       clip-path="url(#clipPath-408241621)"
       id="g3650">
      <!-- color: #004794 -->
      <g
         id="g3652" />
    </g>
  </g>
  <g
     id="g4174"
     transform="matrix(-0.6472494,-0.47025422,0.47025422,-0.6472494,9.9701341,20.295587)">
    <g
       style="fill:#353535;fill-opacity:1"
       id="g3628-8"
       transform="matrix(0.34782609,0,0,0.34782609,2.6435901,2.6456559)">
      <path
         inkscape:connector-curvature="0"
         id="path3630"
         transform="matrix(2.875,0,0,2.875,97.067647,-33.481261)"
         d="m -25.40625,14.5 c 2.303968,0 4.367461,1.302964 5.28125,3.3125 l 1.21875,-0.46875 -1,3.46875 -3.3125,-1.84375 1.28125,-0.5 c -0.620857,-1.310198 -1.9541,-2.125 -3.46875,-2.125 -1.572637,0 -2.996131,0.939574 -3.5625,2.34375 L -30.75,18 c 0.844805,-2.103515 2.984794,-3.5 5.34375,-3.5 z m -5.5,4.71875 3.3125,1.78125 -1.28125,0.5 c 0.613358,1.304699 1.964097,2.15625 3.46875,2.15625 1.575636,0 2.978635,-0.910324 3.5625,-2.3125 l 1.78125,0.6875 c -0.876798,2.103015 -2.979296,3.46875 -5.34375,3.46875 -2.292471,0 -4.386956,-1.339213 -5.28125,-3.34375 l -1.21875,0.4375 z"
         style="fill:#353535;fill-opacity:1"
         sodipodi:nodetypes="scccccsccscccsccsccc" />
    </g>
    <g
       transform="matrix(0.49988464,0,0,0.49988464,-37.411065,7.9950011)"
       clip-path="url(#clipPath-408241621-2)"
       id="g3650-3">
      <!-- color: #004794 -->
      <g
         id="g3652-1" />
    </g>
  </g>
  <g
     id="g4174-4"
     style="stroke:#000000;stroke-width:1.5;stroke-miterlimit:4;stroke-dasharray:none;stroke-opacity:1"
     transform="matrix(-0.80901699,-0.58778526,0.58778526,-0.80901699,10.53474,10.843704)">
    <g
       style="fill:#353535;fill-opacity:1;stroke:#000000;stroke-width:4.3125;stroke-miterlimit:4;stroke-dasharray:none;stroke-opacity:1"
       id="g3628-8-4"
       transform="matrix(0.34782609,0,0,0.34782609,2.6435901,2.6456559)" />
    <g
       transform="matrix(0.49988464,0,0,0.49988464,-37.411065,7.9950011)"
       clip-path="url(#clipPath-408241621-2-6)"
       id="g3650-3-9"
       style="stroke:#000000;stroke-width:3.00069237;stroke-miterlimit:4;stroke-dasharray:none;stroke-opacity:1">
      <!-- color: #004794 -->
      <g
         id="g3652-1-7"
         style="stroke:#000000;stroke-width:3.00069237;stroke-miterlimit:4;stroke-dasharray:none;stroke-opacity:1" />
    </g>
  </g>
</svg>

<svg xmlns="http://www.w3.org/2000/svg" viewBox="0 0 16 16">
 <path d="m 7.882 4.169 c -0.497 0.005 -0.991 0.102 -1.456 0.289 l 0.175 0.27 c 1.149 -0.455 2.47 -0.321 3.51 0.434 0.112 0.081 0.214 0.171 0.314 0.263 0.121 -0.017 0.236 -0.028 0.355 -0.042 c -0.156 -0.159 -0.324 -0.31 -0.508 -0.444 -0.061 -0.044 -0.125 -0.078 -0.188 -0.119 -0.125 -0.066 -0.263 -0.149 -0.384 -0.222 -0.578 -0.29 -1.199 -0.436 -1.817 -0.43 m 0.156 1.474 c -0.475 -0.025 -0.949 0.087 -1.361 0.339 l -0.5 0.305 -0.047 -0.073 0.077 0.166 c 0.315 -0.097 0.633 -0.193 0.961 -0.281 0.494 -0.134 0.978 -0.245 1.455 -0.347 -0.193 -0.058 -0.388 -0.097 -0.584 -0.108 m -3.405 0.197 -0.395 0.308 c -0.052 0.094 -0.115 0.208 -0.177 0.305 l 0.231 0.061 -0.114 0.553 c -0.002 0.01 -0.001 0.02 -0.003 0.03 0.118 -0.048 0.244 -0.094 0.366 -0.141 l 0.061 -0.323 0.453 0.119 -0.422 -0.911 m 8.03 0.03 c -0.029 0.001 -0.063 0.004 -0.092 0.005 0.422 0.859 0.611 1.823 0.523 2.785 l 1.263 0.367 c 1.143 -0.757 1.783 -1.513 1.624 -2.116 -0.184 -0.698 -1.398 -1.079 -3.317 -1.041 m -1.409 0.097 c -0.1 0.011 -0.205 0.028 -0.306 0.041 0.576 0.8 0.822 1.802 0.634 2.781 l -0.12 0.63 -0.428 -0.113 0.422 0.877 0.709 -0.544 -0.392 -0.116 0.116 -0.544 c 0.217 -1.027 -0.031 -2.122 -0.634 -3.01 z m -1.741 0.261 c -0.7 0.13 -1.413 0.283 -2.134 0.478 -0.308 0.083 -0.595 0.179 -0.891 0.27 l 0.734 1.581 -1.583 -0.414 c 0.066 0.676 0.425 1.309 1.036 1.753 0.825 0.599 1.928 0.641 2.738 0.134 l 0.489 -0.306 -1.078 -2.238 1.606 0.42 c -0.06 -0.639 -0.386 -1.246 -0.917 -1.68 m -5.072 1.459 c -0.112 0.045 -0.215 0.092 -0.323 0.138 0 1.249 0.603 2.474 1.691 3.264 c 0.456 0.331 0.961 0.549 1.481 0.664 c 0.272 -0.059 0.549 -0.129 0.827 -0.198 -0.752 0.003 -1.504 -0.221 -2.145 -0.688 -1.036 -0.753 -1.608 -1.95 -1.53 -3.18 m -1.45 0.648 c -1.985 0.993 -3.176 2.081 -2.961 2.891 c 0.25 0.946 2.352 1.245 5.163 0.889 -0.029 -0.02 -0.061 -0.034 -0.089 -0.055 c -1.246 -0.905 -1.976 -2.274 -2.113 -3.725" style="fill:#353535;opacity:1;fill-opacity:0.941;stroke:none;fill-rule:nonzero"/>
 <g transform="matrix(0.42307692,0,0,0.42307692,6.3606939,1.5192308)">
  <g transform="matrix(0.49988464,0,0,0.49988464,-37.411065,7.9950011)">
   <!-- color: #004794 -->
  </g>
 </g>
 <g transform="matrix(-0.6472494,-0.47025422,0.47025422,-0.6472494,9.9701341,20.295587)">
  <g transform="matrix(0.34782609,0,0,0.34782609,2.6435901,2.6456559)" style="fill:#353535;fill-opacity:1">
   <path transform="matrix(2.875,0,0,2.875,97.067647,-33.481261)" d="m -25.406 14.5 c 2.304 0 4.367 1.303 5.281 3.313 l 1.219 -0.469 -1 3.469 -3.313 -1.844 1.281 -0.5 c -0.621 -1.31 -1.954 -2.125 -3.469 -2.125 -1.573 0 -2.996 0.94 -3.563 2.344 l -1.781 -0.688 c 0.845 -2.104 2.985 -3.5 5.344 -3.5 z m -5.5 4.719 3.313 1.781 -1.281 0.5 c 0.613 1.305 1.964 2.156 3.469 2.156 1.576 0 2.979 -0.91 3.563 -2.313 l 1.781 0.688 c -0.877 2.103 -2.979 3.469 -5.344 3.469 -2.292 0 -4.387 -1.339 -5.281 -3.344 l -1.219 0.438 z"/>
  </g>
  <g transform="matrix(0.49988464,0,0,0.49988464,-37.411065,7.9950011)">
   <!-- color: #004794 -->
  </g>
 </g>
 <g transform="matrix(-0.80901699,-0.58778526,0.58778526,-0.80901699,10.53474,10.843704)" style="stroke-dasharray:none;stroke-opacity:1;stroke-miterlimit:4;stroke:#000;stroke-width:1.5">
  <g transform="matrix(0.49988464,0,0,0.49988464,-37.411065,7.9950011)" style="stroke-width:3">
   <!-- color: #004794 -->
  </g>
 </g>
</svg>
